T: Starry Nights Of Shetland, The
M: 3/4
L: 1/8
K: Cmaj
|D|D|Em|Em|A|A|D|D||D|D|Em|Em|A|A7|D|D||G|G|D|D|D|Bm|Em|A||D|D7|G|C#7/G#|A|A7|D|D|
